src/html/img/position.svg

<?xml version="1.0" encoding="UTF-8" standalone="no"?>
<svg
   xmlns:dc="http://purl.org/dc/elements/1.1/"
   xmlns:cc="http://creativecommons.org/ns#"
   xmlns:rdf="http://www.w3.org/1999/02/22-rdf-syntax-ns#"
   xmlns:svg="http://www.w3.org/2000/svg"
   xmlns="http://www.w3.org/2000/svg"
   xmlns:sodipodi="http://sodipodi.sourceforge.net/DTD/sodipodi-0.dtd"
   xmlns:inkscape="http://www.inkscape.org/namespaces/inkscape"
   width="32"
   height="32"
   viewBox="0 0 32 32"
   fill="none"
   version="1.1"
   id="svg4"
   sodipodi:docname="position.svg"
   inkscape:version="0.92.5 (2060ec1f9f, 2020-04-08)">
  <metadata
     id="metadata10">
    <rdf:RDF>
      <cc:Work
         rdf:about="">
        <dc:format>image/svg+xml</dc:format>
        <dc:type
           rdf:resource="http://purl.org/dc/dcmitype/StillImage" />
        <dc:title></dc:title>
      </cc:Work>
    </rdf:RDF>
  </metadata>
  <defs
     id="defs8">
    <clipPath
       id="clip0_1_3176">
      <rect
         id="rect820"
         transform="translate(0.638672)"
         fill="white"
         height="26"
         width="24.7224" />
    </clipPath>
  </defs>
  <sodipodi:namedview
     pagecolor="#ffffff"
     bordercolor="#666666"
     borderopacity="1"
     objecttolerance="10"
     gridtolerance="10"
     guidetolerance="10"
     inkscape:pageopacity="0"
     inkscape:pageshadow="2"
     inkscape:window-width="1920"
     inkscape:window-height="1017"
     id="namedview6"
     showgrid="false"
     inkscape:zoom="29.5"
     inkscape:cx="18.110605"
     inkscape:cy="13.416642"
     inkscape:window-x="1912"
     inkscape:window-y="-8"
     inkscape:window-maximized="1"
     inkscape:current-layer="Frame 5" />
  <g
     id="Frame 5">
    <path
       id="Shape"
       d="m 13.3,17.9416 v 1.8243 c -2.6395,0.3295 -4.5,1.0822 -4.5,1.6341 0,0.7263 3.2212,1.8 7.2,1.8 3.9788,0 7.2,-1.0737 7.2,-1.8 0,-0.5519 -1.8605,-1.3046 -4.5,-1.6341 V 17.9416 C 22.3503,18.3415 25,19.571 25,21.4 25,23.6561 20.9682,25 16,25 11.0318,25 7,23.6561 7,21.4 7,19.571 9.64971,18.3415 13.3,17.9416 Z"
       style="fill:#3993f3;fill-opacity:1"
       inkscape:connector-curvature="0"
       sodipodi:nodetypes="ccsssccsssc" />
  </g>
  <g
     style="fill:none"
     id="g836"
     transform="matrix(0.7235915,0,0,0.7235915,6.6235268,6.2418379)">
    <g
       clip-path="url(#clip0_1_3176)"
       id="Calque_1">
      <path
         d="m 9.62796,14.3566 v 5.7097 c 0,0.5537 0.21995,1.0847 0.61144,1.4762 0.3915,0.3915 0.9225,0.6114 1.4762,0.6114 h 2.5684 c 0.5543,0 1.086,-0.2197 1.4785,-0.611 0.3926,-0.3913 0.614,-0.9223 0.6157,-1.4766 v -5.7097 c 0.7323,-0.186 1.3818,-0.6107 1.8457,-1.207 0.464,-0.5963 0.7159,-1.3303 0.7161,-2.0858 V 8.49538 C 18.9383,7.65183 18.6211,6.83943 18.0508,6.21791 17.4805,5.59639 16.6982,5.21071 15.8579,5.13672 16.1968,4.60791 16.3773,3.99323 16.3782,3.36519 16.3984,2.90942 16.326,2.45429 16.1654,2.02725 16.0049,1.60022 15.7595,1.21012 15.4441,0.880481 15.1288,0.550845 14.7499,0.288503 14.3303,0.109275 c -0.4195,-0.1792283 -0.871,-0.271629 -1.3272,-0.271629 -0.4562,0 -0.9077,0.0924007 -1.3273,0.271629 C 11.2563,0.288503 10.8774,0.550845 10.562,0.880481 10.2466,1.21012 10.0013,1.60022 9.84074,2.02725 9.6802,2.45429 9.60782,2.90942 9.62796,3.36519 9.62945,3.99222 9.80747,4.60616 10.1416,5.13672 9.30134,5.21071 8.51912,5.59639 7.94878,6.21791 7.37844,6.83943 7.06125,7.65183 7.05957,8.49538 v 2.56842 c 5.6e-4,0.7564 0.25348,1.491 0.71871,2.0875 0.46522,0.5964 1.11615,1.0206 1.84968,1.2053 z M 11.9,5.30136 C 11.8939,4.96632 11.7782,4.6425 11.5707,4.37937 11.3555,4.09011 11.24,3.73887 11.2414,3.37836 c -0.0147,-0.2404 0.02,-0.48127 0.1019,-0.70778 0.0818,-0.2265 0.2092,-0.43385 0.3742,-0.60928 0.1651,-0.17543 0.3643,-0.31523 0.5853,-0.41079 0.2211,-0.09556 0.4594,-0.14485 0.7003,-0.14485 0.2408,0 0.4791,0.04929 0.7002,0.14485 0.2211,0.09556 0.4203,0.23536 0.5853,0.41079 0.1651,0.17543 0.2924,0.38278 0.3743,0.60928 0.0819,0.22651 0.1165,0.46738 0.1018,0.70778 -0.0018,0.35999 -0.117,0.71025 -0.3292,1.00101 -0.2102,0.26166 -0.3262,0.58641 -0.3293,0.92199 -0.0018,0.19279 0.0348,0.38401 0.1076,0.56254 0.0727,0.17854 0.1803,0.34084 0.3163,0.47747 0.136,0.13663 0.2978,0.24488 0.476,0.31845 0.1782,0.07358 0.3693,0.11101 0.5621,0.11013 0.2316,-0.00265 0.4615,0.04103 0.676,0.12846 0.2145,0.08742 0.4094,0.21684 0.5732,0.38065 0.1638,0.16381 0.2933,0.35871 0.3807,0.57324 0.0874,0.21453 0.1311,0.44437 0.1284,0.67601 v 2.56839 c 0.0054,0.3231 -0.0808,0.6412 -0.2487,0.9174 -0.1678,0.2762 -0.4103,0.4992 -0.6996,0.6434 V 9.15394 C 16.3883,9.04188 16.375,8.92892 16.3391,8.82229 16.3032,8.71566 16.2454,8.61768 16.1695,8.53461 16.0936,8.45153 16.0012,8.38518 15.8983,8.33979 15.7953,8.29439 15.684,8.27095 15.5715,8.27095 c -0.1126,0 -0.2238,0.02344 -0.3268,0.06884 -0.103,0.04539 -0.1953,0.11174 -0.2712,0.19482 -0.0759,0.08307 -0.1337,0.18105 -0.1696,0.28768 -0.036,0.10663 -0.0493,0.21959 -0.0392,0.33165 V 20.0663 c -0.0017,0.1264 -0.0531,0.247 -0.1431,0.3357 -0.0899,0.0887 -0.2112,0.1385 -0.3376,0.1385 h -0.4742 v -5.611 c -0.0182,-0.2014 -0.1111,-0.3886 -0.2603,-0.525 -0.1493,-0.1364 -0.3442,-0.212 -0.5464,-0.212 -0.2022,0 -0.3971,0.0756 -0.5464,0.212 -0.1493,0.1364 -0.2421,0.3236 -0.2604,0.525 v 5.611 h -0.4807 c -0.1258,0 -0.2464,-0.05 -0.3353,-0.1389 -0.0889,-0.0889 -0.1389,-0.2095 -0.1389,-0.3353 V 9.15394 C 11.2516,9.04188 11.2382,8.92892 11.2023,8.82229 11.1664,8.71566 11.1086,8.61768 11.0327,8.53461 10.9568,8.45153 10.8644,8.38518 10.7615,8.33979 10.6585,8.29439 10.5472,8.27095 10.4347,8.27095 c -0.1125,0 -0.2238,0.02344 -0.3268,0.06884 C 10.005,8.38518 9.91258,8.45153 9.83668,8.53461 9.76078,8.61768 9.70302,8.71566 9.66708,8.82229 9.63115,8.92892 9.61782,9.04188 9.62796,9.15394 V 12.6377 C 9.34041,12.4909 9.09904,12.2674 8.93053,11.9919 8.76202,11.7165 8.67291,11.3998 8.67305,11.0769 V 8.50855 C 8.67388,8.27713 8.72073,8.04818 8.81088,7.83504 8.90102,7.62189 9.03266,7.4288 9.19813,7.26701 9.3636,7.10521 9.5596,6.97795 9.77472,6.89261 9.98983,6.80728 10.2198,6.76558 10.4512,6.76995 10.6428,6.76909 10.8325,6.73038 11.0092,6.65602 11.1858,6.58167 11.3461,6.47315 11.4807,6.33669 11.6153,6.20023 11.7217,6.03852 11.7936,5.86085 11.8656,5.68318 11.9017,5.49304 11.9,5.30136 Z"
         id="Vector_2"
         inkscape:connector-curvature="0"
         style="fill:#3993f3" />
    </g>
  </g>
</svg>

<svg width="32" height="32" viewBox="0 0 32 32" fill="none" xmlns="http://www.w3.org/2000/svg">
<g id="Calque_1" clip-path="url(#clip0_1_3176)">
<path id="Vector" d="M24.202 18.3804C23.3992 17.6856 22.4749 17.1453 21.4756 16.7867C20.1984 16.3056 18.8739 15.9612 17.5242 15.7594H17.3332V17.307H17.4715C18.6524 17.4924 19.811 17.7992 20.9289 18.2224C21.7518 18.5203 22.513 18.9668 23.1746 19.5395C23.3627 19.6816 23.5185 19.8619 23.632 20.0684C23.7455 20.275 23.8141 20.5032 23.8332 20.7381C23.8133 20.9737 23.7445 21.2027 23.6311 21.4102C23.5177 21.6177 23.3622 21.7993 23.1746 21.9433C22.5112 22.5136 21.7505 22.9598 20.9289 23.2604C18.3903 24.1475 15.7151 24.58 13.0262 24.538C10.3225 24.5771 7.63328 24.1356 5.08396 23.234C4.26162 22.935 3.50064 22.4887 2.83827 21.9169C2.65067 21.7729 2.4952 21.5914 2.38179 21.3838C2.26839 21.1763 2.19956 20.9474 2.17971 20.7117C2.19884 20.4768 2.26741 20.2486 2.3809 20.0421C2.49439 19.8355 2.65025 19.6553 2.83827 19.5132C3.49994 18.9404 4.26112 18.494 5.08396 18.196C6.20059 17.7817 7.35701 17.4838 8.53482 17.307H8.67312V15.7264H8.48214C7.13274 15.9299 5.80839 16.2743 4.53077 16.7538C3.53221 17.114 2.60812 17.6541 1.80433 18.3475C1.4538 18.6352 1.16855 18.9943 0.967567 19.4008C0.766582 19.8073 0.654464 20.252 0.638672 20.7052C0.658548 21.1531 0.771939 21.5919 0.971556 21.9934C1.17117 22.3949 1.4526 22.7502 1.79774 23.0365C2.60197 23.7276 3.52605 24.2655 4.52418 24.6236C7.24302 25.5914 10.1144 26.06 12.9999 26.0066C15.8854 26.0611 18.757 25.5926 21.4756 24.6236C22.4744 24.2672 23.3988 23.7291 24.202 23.0365C24.5471 22.7502 24.8286 22.3949 25.0282 21.9934C25.2278 21.5919 25.3412 21.1531 25.3611 20.7052C25.3415 20.2581 25.2282 19.8201 25.0285 19.4197C24.8289 19.0192 24.5473 18.6651 24.202 18.3804Z" fill="#3993F3"/>
<path id="Vector_2" d="M9.62796 14.3566V20.0663C9.62796 20.62 9.84791 21.151 10.2394 21.5425C10.6309 21.934 11.1619 22.1539 11.7156 22.1539H14.284C14.8383 22.1539 15.37 21.9342 15.7625 21.5429C16.1551 21.1516 16.3765 20.6206 16.3782 20.0663V14.3566C17.1105 14.1706 17.76 13.7459 18.2239 13.1496C18.6879 12.5533 18.9398 11.8193 18.94 11.0638V8.49538C18.9383 7.65183 18.6211 6.83943 18.0508 6.21791C17.4805 5.59639 16.6982 5.21071 15.8579 5.13672C16.1968 4.60791 16.3773 3.99323 16.3782 3.36519C16.3984 2.90942 16.326 2.45429 16.1654 2.02725C16.0049 1.60022 15.7595 1.21012 15.4441 0.880481C15.1288 0.550845 14.7499 0.288503 14.3303 0.109275C13.9108 -0.0699533 13.4593 -0.162354 13.0031 -0.162354C12.5469 -0.162354 12.0954 -0.0699533 11.6758 0.109275C11.2563 0.288503 10.8774 0.550845 10.562 0.880481C10.2466 1.21012 10.0013 1.60022 9.84074 2.02725C9.6802 2.45429 9.60782 2.90942 9.62796 3.36519C9.62945 3.99222 9.80747 4.60616 10.1416 5.13672C9.30134 5.21071 8.51912 5.59639 7.94878 6.21791C7.37844 6.83943 7.06125 7.65183 7.05957 8.49538V11.0638C7.06013 11.8202 7.31305 12.5548 7.77828 13.1513C8.2435 13.7477 8.89443 14.1719 9.62796 14.3566ZM11.9 5.30136C11.8939 4.96632 11.7782 4.6425 11.5707 4.37937C11.3555 4.09011 11.24 3.73887 11.2414 3.37836C11.2267 3.13796 11.2614 2.89709 11.3433 2.67058C11.4251 2.44408 11.5525 2.23673 11.7175 2.0613C11.8826 1.88587 12.0818 1.74607 12.3028 1.65051C12.5239 1.55495 12.7622 1.50566 13.0031 1.50566C13.2439 1.50566 13.4822 1.55495 13.7033 1.65051C13.9244 1.74607 14.1236 1.88587 14.2886 2.0613C14.4537 2.23673 14.581 2.44408 14.6629 2.67058C14.7448 2.89709 14.7794 3.13796 14.7647 3.37836C14.7629 3.73835 14.6477 4.08861 14.4355 4.37937C14.2253 4.64103 14.1093 4.96578 14.1062 5.30136C14.1044 5.49415 14.141 5.68537 14.2138 5.8639C14.2865 6.04244 14.3941 6.20474 14.5301 6.34137C14.6661 6.478 14.8279 6.58625 15.0061 6.65982C15.1843 6.7334 15.3754 6.77083 15.5682 6.76995C15.7998 6.7673 16.0297 6.81098 16.2442 6.89841C16.4587 6.98583 16.6536 7.11525 16.8174 7.27906C16.9812 7.44287 17.1107 7.63777 17.1981 7.8523C17.2855 8.06683 17.3292 8.29667 17.3265 8.52831V11.0967C17.3319 11.4198 17.2457 11.7379 17.0778 12.0141C16.91 12.2903 16.6675 12.5133 16.3782 12.6575V9.15394C16.3883 9.04188 16.375 8.92892 16.3391 8.82229C16.3032 8.71566 16.2454 8.61768 16.1695 8.53461C16.0936 8.45153 16.0012 8.38518 15.8983 8.33979C15.7953 8.29439 15.684 8.27095 15.5715 8.27095C15.4589 8.27095 15.3477 8.29439 15.2447 8.33979C15.1417 8.38518 15.0494 8.45153 14.9735 8.53461C14.8976 8.61768 14.8398 8.71566 14.8039 8.82229C14.7679 8.92892 14.7546 9.04188 14.7647 9.15394V20.0663C14.763 20.1927 14.7116 20.3133 14.6216 20.402C14.5317 20.4907 14.4104 20.5405 14.284 20.5405H13.8098V14.9295C13.7916 14.7281 13.6987 14.5409 13.5495 14.4045C13.4002 14.2681 13.2053 14.1925 13.0031 14.1925C12.8009 14.1925 12.606 14.2681 12.4567 14.4045C12.3074 14.5409 12.2146 14.7281 12.1963 14.9295V20.5405H11.7156C11.5898 20.5405 11.4692 20.4905 11.3803 20.4016C11.2914 20.3127 11.2414 20.1921 11.2414 20.0663V9.15394C11.2516 9.04188 11.2382 8.92892 11.2023 8.82229C11.1664 8.71566 11.1086 8.61768 11.0327 8.53461C10.9568 8.45153 10.8644 8.38518 10.7615 8.33979C10.6585 8.29439 10.5472 8.27095 10.4347 8.27095C10.3222 8.27095 10.2109 8.29439 10.1079 8.33979C10.005 8.38518 9.91258 8.45153 9.83668 8.53461C9.76078 8.61768 9.70302 8.71566 9.66708 8.82229C9.63115 8.92892 9.61782 9.04188 9.62796 9.15394V12.6377C9.34041 12.4909 9.09904 12.2674 8.93053 11.9919C8.76202 11.7165 8.67291 11.3998 8.67305 11.0769V8.50855C8.67388 8.27713 8.72073 8.04818 8.81088 7.83504C8.90102 7.62189 9.03266 7.4288 9.19813 7.26701C9.3636 7.10521 9.5596 6.97795 9.77472 6.89261C9.98983 6.80728 10.2198 6.76558 10.4512 6.76995C10.6428 6.76909 10.8325 6.73038 11.0092 6.65602C11.1858 6.58167 11.3461 6.47315 11.4807 6.33669C11.6153 6.20023 11.7217 6.03852 11.7936 5.86085C11.8656 5.68318 11.9017 5.49304 11.9 5.30136Z" fill="#3993F3"/>
</g>
<defs>
<clipPath id="clip0_1_3176">
<rect width="24.7224" height="26" fill="white" transform="translate(0.638672)"/>
</clipPath>
</defs>
</svg>
